assets/icons/qvision/local_library.svg

<svg xmlns="http://www.w3.org/2000/svg" height="24" viewBox="0 0 24 24" width="24"><path d="M0 0h24v24H0z" fill="none"/><path d="M12 11.55C9.64 9.35 6.48 8 3 8v11c3.48 0 6.64 1.35 9 3.55 2.36-2.19 5.52-3.55 9-3.55V8c-3.48 0-6.64 1.35-9 3.55zM12 8c1.66 0 3-1.34 3-3s-1.34-3-3-3-3 1.34-3 3 1.34 3 3 3z"/></svg>

<svg width="24" height="24" viewBox="0 0 24 24" fill="none" xmlns="http://www.w3.org/2000/svg">
<g clip-path="url(#clip0_147_5418)">
<path d="M12 11.55C9.64 9.35 6.48 8 3 8V19C6.48 19 9.64 20.35 12 22.55C14.36 20.36 17.52 19 21 19V8C17.52 8 14.36 9.35 12 11.55ZM12 8C13.66 8 15 6.66 15 5C15 3.34 13.66 2 12 2C10.34 2 9 3.34 9 5C9 6.66 10.34 8 12 8Z" fill="#323232"/>
</g>
<defs>
<clipPath id="clip0_147_5418">
<rect width="24" height="24" fill="white"/>
</clipPath>
</defs>
</svg>
